!!!SOCIAL_FUNCTION:	flower dance songs
!!!PDT:	1957
!!!OTL: No_27_Butterfly_Song.krn
!!!LING_GROUP: Keresan
!!!LANG: Tone
!!!REG: Southwest
**kern
*staff1
=1-
*clefF4
*k[]
*M2/4
4A\
8A\L
8A\J
=2
*M3/4
4A\
4A\
4A\
=3
*M2/4
4d\
8c\L
8c\J
=4
*M5/8
8d\L
8c\
8c\J
4c\
=5
*M2/4
4d\
8c\L
8A\J
=6
*M5/8
8c\L
8A\
8A\J
4A\
=7
*M2/4
4d\
8c\L
8c\J
=8
*M5/8
8d\L
8c\
8c\
8c\J
8r
=9
*M2/4
4d\
8c\L
8A\J
=10
*M5/8
8c\L
8A\
8A\J
4A\
=11
*M3/4
4e\
8e\L
8e\J
8e\L
8f#\J
=12
16f#\LL
16e\J
8e\J
4e\
8e\L
8f#\J
=13
16f#\LL
16d\J
8d\J
[4d\
8d\L]
8A\J
=14
*M5/8
8B\L
8A\
8A\J
4A\
=15
*M3/4
4d\
8d\L
8d\J
8d\L
8e\J
=16
16e\LL
16d\J
8d\J
4d\
8d\L
8A\J
=17
*M5/8
8B\L
8A\
8A\J
4A\
=18
*M2/4
8e\L
16e\L
16d\JJ
4c\
=19
8d\L
16d\L
16c\JJ
4A\
=20
*M5/8
8c\L
8A\
8A\
8A\J
8r
=21
*M2/4
8e\L
16e\L
16d\JJ
4c\
=22
8d\L
16d\L
16c\JJ
4A\
=23
*M5/8
8c\L
8A\
8A\J
4A\
=24
*M2/4
8A\L
8A\J
8A\L
8d\J
=25
*M3/4
8d\L
8c\J
4c\
8c\L
8d\J
=26
*M2/4
16c\LL
16c\J
8A\J
8A\L
8A\J
=27
16c\LL
16c\J
8A\J
4A\
=28
4A\
4r
=29
4d\
8c\L
8c\J
=30
*M5/8
8d\L
8c\
8c\J
4c\
=31
*M2/4
4d\
8c\L
8A\J
=32
*M5/8
8c\L
8A\
8A\J
4A\
=33
*M2/4
4d\
8c\L
8c\J
=34
*M5/8
8d\L
8c\
8c\J
4c\
=35
*M2/4
4d\
8c\L
8A\J
=36
*M5/8
8c\L
8A\
8A\
8A\J
8r
=37!|:
*M3/4
4e\
8e\L
8e\J
8e\L
8f#\J
=38
16f#\LL
16e\J
8e\J
8e\L
8e\J
8e\L
8f#\J
=39
16f#\LL
16d\J
8d\J
8d\L
8d\J
8d\L
8A\J
=40
*M5/8
8B\L
8A\
8A\J
4A\
=41
*M3/4
4d\
8d\L
8d\J
8d\L
8e\J
=42
16e\LL
16d\J
8d\J
4d\
8d\L
8A\J
=43
*M5/8
8B\L
8A\
8A\
8A\J
8r
=44
!!pagebreak:default
*M2/4
8e\L
16e\L
16d\JJ
4c\
=45
8d\L
16d\L
16c\JJ
4A\
=46
*M5/8
8c\L
8A\
8A\J
4A\
=47
*M2/4
8e\L
16e\L
16d\JJ
4c\
=48
8d\L
16d\L
16c\JJ
4A\
=49
*M5/8
8c\L
8A\
8A\
8A\J
8r
=50
*M2/4
8A\L
8A\J
8A\L
8d\J
=51
8d\L
8c\J
4c\
=52
*M3/4
8c\L
8d\J
8c\L
16A\L
16A\JJ
8A\L
8A\J
=53
16c\LL
16A\J
8A\J
8A\L
8A\J
8A\
8r
=54
*M2/4
4c\
8c\L
8c\J
=55
8c\L
8c\J
8c\L
8c\J
=56
16c\LK
8.A\J
8A\L
8A\J
=57
*M3/4
16c\LK
8.A\J
4A\
4A\
=58
*M2/4
4e\
16e\LL
16d\J
8c\J
=59
*M3/4
4d\
16e\LK
8.d\J
16e\LL
16d\J
8A\J
=60
*M2/4
4c\
8c\L
8d\J
=61
16c\LK
8.A\J
8A\
8r
=62
*M3/4
4A\
4A\
4A\
=63
*M2/4
8e\L
8e\J
16e\LL
16d\J
8c\J
=64
*M3/4
4d\
16e\LK
8.d\J
16d\LL
16c\J
8A\J
=65
*M2/4
4c\
8c\L
8d\J
=66
*M3/4
16c\LK
8.A\J
4A\
8A\
8r
=67
4A\
4A\
4A\
==:|!
*-
